svg/file/unlink_2_line.svg

<?xml version="1.0" encoding="UTF-8"?>
<svg width="24px" height="24px" viewBox="0 0 24 24" version="1.1" xmlns="http://www.w3.org/2000/svg" xmlns:xlink="http://www.w3.org/1999/xlink">
    <title>unlink_2_line</title>
    <g id="页面-1" stroke="none" stroke-width="1" fill="none" fill-rule="evenodd">
        <g id="File" transform="translate(-672.000000, -96.000000)" fill-rule="nonzero">
            <g id="unlink_2_line" transform="translate(672.000000, 96.000000)">
                 <path d="M24,0 L24,24 L0,24 L0,0 L24,0 Z M12.5934901,23.257841 L12.5819402,23.2595131 L12.5108777,23.2950439 L12.4918791,23.2987469 L12.4918791,23.2987469 L12.4767152,23.2950439 L12.4056548,23.2595131 C12.3958229,23.2563662 12.3870493,23.2590235 12.3821421,23.2649074 L12.3780323,23.275831 L12.360941,23.7031097 L12.3658947,23.7234994 L12.3769048,23.7357139 L12.4804777,23.8096931 L12.4953491,23.8136134 L12.4953491,23.8136134 L12.5071152,23.8096931 L12.6106902,23.7357139 L12.6232938,23.7196733 L12.6232938,23.7196733 L12.6266527,23.7031097 L12.609561,23.275831 C12.6075724,23.2657013 12.6010112,23.2592993 12.5934901,23.257841 L12.5934901,23.257841 Z M12.8583906,23.1452862 L12.8445485,23.1473072 L12.6598443,23.2396597 L12.6498822,23.2499052 L12.6498822,23.2499052 L12.6471943,23.2611114 L12.6650943,23.6906389 L12.6699349,23.7034178 L12.6699349,23.7034178 L12.678386,23.7104931 L12.8793402,23.8032389 C12.8914285,23.8068999 12.9022333,23.8029875 12.9078286,23.7952264 L12.9118235,23.7811639 L12.8776777,23.1665331 C12.8752882,23.1545897 12.8674102,23.1470016 12.8583906,23.1452862 L12.8583906,23.1452862 Z M12.1430473,23.1473072 C12.1332178,23.1423925 12.1221763,23.1452606 12.1156365,23.1525954 L12.1099173,23.1665331 L12.0757714,23.7811639 C12.0751323,23.7926639 12.0828099,23.8018602 12.0926481,23.8045676 L12.108256,23.8032389 L12.3092106,23.7104931 L12.3186497,23.7024347 L12.3186497,23.7024347 L12.3225043,23.6906389 L12.340401,23.2611114 L12.337245,23.2485176 L12.337245,23.2485176 L12.3277531,23.2396597 L12.1430473,23.1473072 Z" id="MingCute" fill-rule="nonzero"></path>
                <path d="M8,18 C8.51283143,18 8.93550653,18.386027 8.9932722,18.8833761 L9,19 L9,21 C9,21.5523 8.55228,22 8,22 C7.48716857,22 7.06449347,21.613973 7.0067278,21.1166239 L7,21 L7,19 C7,18.4477 7.44772,18 8,18 Z M16.2426,9.87845 C16.6030615,9.51797 17.1703207,9.49024077 17.5625973,9.79526231 L17.6568,9.87845 L19.7781,11.9998 C21.926,14.1477 21.926,17.6301 19.7781,19.7779 C17.6898639,21.8661361 14.340237,21.9241427 12.1819236,19.9519197 L11.9999,19.7779 L9.87861,17.6566 C9.48808,17.2661 9.48808,16.6329 9.87861,16.2424 C10.2390623,15.8819385 10.8063208,15.8542107 11.1985973,16.1592166 L11.2928,16.2424 L13.4141,18.3637 C14.781,19.7306 16.9971,19.7306 18.3639,18.3637 C19.6818857,17.0457143 19.7289566,14.9380096 18.5051128,13.5636154 L18.3639,13.414 L16.2426,11.2927 C15.852,10.9021 15.852,10.269 16.2426,9.87845 Z M5,16 C5.55228,16 6,16.4477 6,17 C6,17.51285 5.61395571,17.9355092 5.11662025,17.9932725 L5,18 L4,18 C3.44772,18 3,17.5523 3,17 C3,16.48715 3.38604429,16.0644908 3.88337975,16.0067275 L4,16 L5,16 Z M9.17136,9.17134 C9.53184923,8.81086 10.0991191,8.78313077 10.4913971,9.08815231 L10.5856,9.17134 L14.8282,13.414 C15.2187,13.8045 15.2187,14.4377 14.8282,14.8282 C14.4677385,15.1886615 13.9004793,15.2163893 13.5082027,14.9113834 L13.414,14.8282 L9.17136,10.5856 C8.78084,10.195 8.78084,9.56187 9.17136,9.17134 Z M4.22175,4.2216 C6.30997639,2.13338333 9.65960305,2.07537731 11.8178797,4.04758194 L11.9999,4.2216 L14.1212,6.34292 C14.5118,6.73344 14.5118,7.36661 14.1212,7.75713 C13.7607385,8.11761923 13.1935645,8.14534917 12.8012224,7.84031982 L12.707,7.75713 L10.5857,5.63581 C9.21888,4.26898 7.0028,4.26898 5.63597,5.63581 C4.31794571,6.95383429 4.27087342,9.06152179 5.49475311,10.4359775 L5.63597,10.5856 L7.75729,12.7069 C8.14781,13.0974 8.14781,13.7306 7.75729,14.1211 C7.39680077,14.4815615 6.82957355,14.5092893 6.43727848,14.2042834 L6.34307,14.1211 L4.22175,11.9998 C2.07387,9.85189 2.07387,6.36948 4.22175,4.2216 Z M20,6 C20.5523,6 21,6.44772 21,7 C21,7.55228 20.5523,8 20,8 L19,8 C18.4477,8 18,7.55228 18,7 C18,6.44772 18.4477,6 19,6 L20,6 Z M16,2 C16.51285,2 16.9355092,2.38604429 16.9932725,2.88337975 L17,3 L17,5 C17,5.55228 16.5523,6 16,6 C15.48715,6 15.0644908,5.61395571 15.0067275,5.11662025 L15,5 L15,3 C15,2.44772 15.4477,2 16,2 Z" id="形状" fill="#09244B"></path>
            </g>
        </g>
    </g>
</svg>

<svg xmlns="http://www.w3.org/2000/svg" width="24" height="24"><g fill="none" fill-rule="nonzero"><path d="M24 0v24H0V0h24ZM12.593 23.258l-.011.002-.071.035-.02.004-.014-.004-.071-.035c-.01-.004-.019-.001-.024.005l-.004.01-.017.428.005.02.01.013.104.074.015.004.012-.004.104-.074.012-.016.004-.017-.017-.427c-.002-.01-.009-.017-.017-.018Zm.265-.113-.013.002-.185.093-.01.01-.003.011.018.43.005.012.008.007.201.093c.012.004.023 0 .029-.008l.004-.014-.034-.614c-.003-.012-.01-.02-.02-.022Zm-.715.002a.023.023 0 0 0-.027.006l-.006.014-.034.614c0 .012.007.02.017.024l.015-.002.201-.093.01-.008.004-.011.017-.43-.003-.012-.01-.01-.184-.092Z"/><path fill="#09244B" d="M8 18a1 1 0 0 1 .993.883L9 19v2a1 1 0 0 1-1.993.117L7 21v-2a1 1 0 0 1 1-1Zm8.243-8.122a1 1 0 0 1 1.32-.083l.094.083L19.778 12a5.5 5.5 0 0 1-7.596 7.952L12 19.778l-2.121-2.121a1 1 0 0 1 1.32-1.498l.094.083 2.121 2.122a3.5 3.5 0 0 0 5.091-4.8l-.141-.15-2.121-2.121a1 1 0 0 1 0-1.415ZM5 16a1 1 0 0 1 .117 1.993L5 18H4a1 1 0 0 1-.117-1.993L4 16h1Zm4.171-6.829a1 1 0 0 1 1.32-.083l.095.083 4.242 4.243a1 1 0 0 1-1.32 1.497l-.094-.083-4.243-4.242a1 1 0 0 1 0-1.415Zm-4.95-4.95a5.5 5.5 0 0 1 7.597-.173l.182.174 2.121 2.12a1 1 0 0 1-1.32 1.498l-.094-.083-2.121-2.121a3.5 3.5 0 0 0-5.091 4.8l.141.15 2.121 2.12a1 1 0 0 1-1.32 1.498l-.094-.083L4.222 12a5.5 5.5 0 0 1 0-7.778ZM20 6a1 1 0 1 1 0 2h-1a1 1 0 1 1 0-2h1Zm-4-4a1 1 0 0 1 .993.883L17 3v2a1 1 0 0 1-1.993.117L15 5V3a1 1 0 0 1 1-1Z"/></g></svg>
